!!!!SEGMENT: pl-sa--551-a-ix-31--008_anonim--mazur.krn
!!!cenid: 18xx:507
!!!COM: Anonim
!!!COM-rism: pe30004985
!!!CDT:
!!!CNT:
!!!OTL: Mazur
!!!PDT:
!!!AGN: Secular; Mazurka
!!!SMS-siglum: PL-SA
!!!SMS-shelfmark: 551/A IX 31
!!!NIFC-rismID: 1001069470
!!!URL-scan: http://bc.bdsandomierz.pl/dlibra/publication/1307/edition/1275/content
!!!ONB-nifc: Str. 10, s. 2-3
!!!SMS-variant:
!!!SMS-altvar:
**kern	**kern	**dynam
*part2	*part1	*part1
*staff2	*staff1	*
*I"keyb	*	*
*clefF4	*clefG2	*
*k[f#]	*k[f#]	*
*M3/8	*M3/8	*
=1	=1	=1
!	!LO:N:vis=16	!
!	!LO:TX:a:i:t=Mazur	!LO:DY:rj
!	!LO:TX:a:t=P:problem:niemiarowy takt (brakująca szesnastka)	!
8G\L	8bL 8g\	p
8d 8B\	8.b 8.g\	.
8dJ 8B\	.	.
.	16bJk 16g\	.
=2	=2	=2
*rep	*	*
!LO:TX:a:t=P:problem:brak cyfr nad znakami powtórzenia	!	!
8G\L	16eeLL 16cc\	.
.	16ddJJ 16b\	.
8d 8B\	4dd 4b\	.
8dJ 8B\	.	.
*Xrep	*	*
=3	=3	=3
8D\L	16ddLL 16b\	.
.	16ddJJ 16b\	.
8d 8A 8F#\	8.ccL 8.a\	.
8dJ 8A 8F#\	.	.
.	16ccJk 16a 16e\	.
=4	=4	=4
8G\L	16ccLL 16a\	.
.	16bJJ 16g\	.
8d 8B\	4b 4g\	.
8dJ 8B\	.	.
=5	=5	=5
*rep	*	*
!	!LO:TX:a:t=P:problem: w pierwszej części taktu przekreślone nuty	!
8G\L	8bL 8g\	.
8d 8B\	8.b 8.g\	.
8dJ 8B\	.	.
.	16ccJk 16a\	.
*Xrep	*	*
=6	=6	=6
*rep	*	*
8G\L	16eeLL 16cc\	.
.	16ddJJ 16b\	.
8d 8B\	4dd 4b\	.
8dJ 8B\	.	.
*Xrep	*	*
=7	=7	=7
8D\L	16ddLL 16b\	.
.	16ddJJ 16b\	.
8d 8A 8F#\	8.ccL 8.a/	.
8dJ 8A 8F#\	.	.
.	16f#Jk 16c/	.
=8	=8	=8
8G\	16aLL 16c/	.
.	16gJJ 16B/	.
4GG/	4g 4B/	.
=9:|!|:	=9:|!|:	=9:|!|:
8D\L	8ddL 8b\	.
8d 8A 8F#\	8.cc 8.a\	.
8dJ 8A 8F#\	.	.
.	16aJk 16f#\	.
=10	=10	=10
8G\L	16ccLL 16a\	.
.	16bJJ 16g\	.
8d 8B 8G\	4b 4g\	.
8dJ 8B 8G\	.	.
!!LO:LB:g=original
=11	=11	=11
*rep	*	*
!LO:TX:a:t=P:problem:jeden znak powtórzenia dla taktów 11-12 (na kresce taktowej)	!	!
8D\L	8ccL 8a\	.
8d 8A 8F#\	8.cc 8.a\	.
8dJ 8A 8F#\	.	.
.	16eeJk 16cc\	.
*Xrep	*	*
=12	=12	=12
*rep	*	*
8G\L	16eeLL 16cc\	.
.	16ddJJ 16b\	.
8d 8B 8G\	4dd 4b\	.
8dJ 8B 8G\	.	.
*Xrep	*	*
=13	=13	=13
8G\L	8bL 8g\	.
8d 8B\	8.b 8.g\	.
8dJ 8B\	.	.
.	16ccJk 16a\	.
=14	=14	=14
*rep	*	*
8G\L	16eeLL 16cc\	.
.	16ddJJ 16b\	.
8d 8B\	4dd 4b\	.
8dJ 8B\	.	.
*Xrep	*	*
=15	=15	=15
8D\L	16ddLL 16b\	.
.	16ddJJ 16b\	.
8d 8A 8F#\	8.ccL 8.a/	.
8dJ 8A 8F#\	.	.
.	16f#Jk 16c/	.
=16	=16	=16
8G\	16aLL 16c/	.
.	16gJJ 16B/	.
4GG/	4g 4B/	.
=:|!	=:|!	=:|!
*-	*-	*-
!!!system-decoration: [(s1,s2)]
!!!RDF**kern: > = above
!!!RDF**kern: < = below
!!!EED: Mateusz Mrugas
!!!EST: 2020-12-05
!!!ENC: Berenika Jozajtis
!!!END: 2020-06-18
